arrow-expand.svg

<svg fill="currentColor" viewBox="0 0 24 24"><path d="M10 21v-2H6.41l4.5-4.5-1.41-1.41-4.5 4.5V14H3v7zm4.5-10.09 4.5-4.5V10h2V3h-7v2h3.59l-4.5 4.5z"/></svg>

<svg  viewBox="0 0 24 24" fill="currentColor"><path  d="M10,21V19H6.41L10.91,14.5L9.5,13.09L5,17.59V14H3V21H10M14.5,10.91L19,6.41V10H21V3H14V5H17.59L13.09,9.5L14.5,10.91Z"/></svg>
